components/Common/Svg/svgs/operator.svg

<svg width="40" height="40" viewBox="0 0 40 40" fill="none" xmlns="http://www.w3.org/2000/svg">
<path d="M20.0047 2.79362C11.6204 2.79362 4.79932 9.61474 4.79932 17.999C4.79932 18.9281 4.79932 26.1158 4.79932 26.2437C4.79932 27.9205 6.16354 29.2847 7.84039 29.2847H9.02843C9.44688 30.4645 10.5736 31.3121 11.8951 31.3121C13.572 31.3121 14.9362 29.9479 14.9362 28.271V20.0264C14.9362 18.3495 13.572 16.9853 11.8951 16.9853C10.5736 16.9853 9.44688 17.8329 9.02843 19.0127H7.84039C7.48499 19.0127 7.14398 19.0745 6.8267 19.187V17.999C6.8267 10.7326 12.7383 4.821 20.0047 4.821C27.271 4.821 33.1826 10.7326 33.1826 17.999V19.187C32.8654 19.0745 32.5244 19.0127 32.169 19.0127H30.9809C30.5625 17.8329 29.4357 16.9853 28.1142 16.9853C26.4374 16.9853 25.0731 18.3495 25.0731 20.0264V28.271C25.0731 29.9479 26.4374 31.3121 28.1142 31.3121C28.4211 31.3121 28.7173 31.266 28.9969 31.1811C28.6177 32.4287 27.4568 33.3395 26.0868 33.3395H22.8714C22.4529 32.1597 21.3262 31.3121 20.0047 31.3121C18.3278 31.3121 16.9636 32.6763 16.9636 34.3532C16.9636 36.03 18.3278 37.3943 20.0047 37.3943C21.3262 37.3943 22.4529 36.5467 22.8714 35.3669H26.0868C28.8816 35.3669 31.1553 33.0932 31.1553 30.2984V29.2847H32.169C33.8458 29.2847 35.21 27.9205 35.21 26.2437C35.21 26.1177 35.21 18.9274 35.21 17.999C35.21 9.61474 28.3889 2.79362 20.0047 2.79362ZM10.8815 20.0264C10.8815 19.4674 11.3362 19.0127 11.8951 19.0127C12.4541 19.0127 12.9088 19.4674 12.9088 20.0264V28.271C12.9088 28.83 12.4541 29.2847 11.8951 29.2847C11.3362 29.2847 10.8815 28.83 10.8815 28.271V20.0264ZM7.84039 21.04H8.85408V27.2573H7.84039C7.28144 27.2573 6.8267 26.8026 6.8267 26.2437V22.0537C6.8267 21.4948 7.28144 21.04 7.84039 21.04ZM20.0047 35.3669C19.4457 35.3669 18.991 34.9121 18.991 34.3532C18.991 33.7942 19.4457 33.3395 20.0047 33.3395C20.5636 33.3395 21.0184 33.7942 21.0184 34.3532C21.0184 34.9121 20.5636 35.3669 20.0047 35.3669ZM29.1279 28.271C29.1279 28.83 28.6731 29.2847 28.1142 29.2847C27.5553 29.2847 27.1005 28.83 27.1005 28.271V20.0264C27.1005 19.4674 27.5553 19.0127 28.1142 19.0127C28.6731 19.0127 29.1279 19.4674 29.1279 20.0264V28.271ZM33.1826 26.2437C33.1826 26.8026 32.7279 27.2573 32.169 27.2573H31.1553V21.04H32.169C32.7279 21.04 33.1826 21.4948 33.1826 22.0537V26.2437Z" fill="#161616"/>
</svg>

<svg width="40" height="40" viewBox="0 0 40 40" fill="none" xmlns="http://www.w3.org/2000/svg"><path d="M20.005 2.794c-8.385 0-15.206 6.82-15.206 15.205v8.245a3.044 3.044 0 0 0 3.041 3.04h1.188a3.046 3.046 0 0 0 2.867 2.028 3.045 3.045 0 0 0 3.041-3.041v-8.245a3.045 3.045 0 0 0-3.04-3.04 3.046 3.046 0 0 0-2.868 2.027H7.84c-.355 0-.696.061-1.013.174v-1.188c0-7.266 5.911-13.178 13.178-13.178 7.266 0 13.178 5.912 13.178 13.178v1.188a3.026 3.026 0 0 0-1.014-.174h-1.188a3.046 3.046 0 0 0-2.867-2.028 3.045 3.045 0 0 0-3.04 3.041v8.245a3.045 3.045 0 0 0 3.923 2.91 3.046 3.046 0 0 1-2.91 2.159H22.87a3.046 3.046 0 0 0-2.866-2.028 3.045 3.045 0 0 0-3.041 3.041 3.045 3.045 0 0 0 3.04 3.041 3.046 3.046 0 0 0 2.867-2.027h3.216a5.074 5.074 0 0 0 5.068-5.069v-1.013h1.014a3.044 3.044 0 0 0 3.041-3.041v-8.245c0-8.384-6.821-15.205-15.205-15.205Zm-9.123 17.232a1.015 1.015 0 0 1 2.027 0v8.245a1.015 1.015 0 0 1-2.027 0v-8.245ZM7.84 21.04h1.014v6.217H7.84a1.015 1.015 0 0 1-1.013-1.013v-4.19c0-.56.454-1.014 1.013-1.014Zm12.165 14.327a1.015 1.015 0 0 1 0-2.027 1.015 1.015 0 0 1 0 2.027Zm9.123-7.096a1.015 1.015 0 0 1-2.027 0v-8.245a1.015 1.015 0 0 1 2.027 0v8.245Zm4.055-2.027c0 .559-.455 1.013-1.014 1.013h-1.014V21.04h1.014c.559 0 1.014.455 1.014 1.014v4.19Z" fill="#161616"/></svg>
